front/assets/svgs/crop.svg

<!DOCTYPE svg PUBLIC "-//W3C//DTD SVG 1.1//EN" "http://www.w3.org/Graphics/SVG/1.1/DTD/svg11.dtd"><!--Uploaded to: SVG Repo, www.svgrepo.com, Transformed by: SVG Repo Mixer Tools--><svg viewBox="0 0 24 24" fill="none"><g stroke-width="0"/><g stroke-linecap="round" stroke-linejoin="round"/><g><path d="M8.5 11.5C8.5 10.0858 8.5 9.37868 8.93934 8.93934C9.37868 8.5 10.0858 8.5 11.5 8.5H12.5C13.9142 8.5 14.6213 8.5 15.0607 8.93934C15.5 9.37868 15.5 10.0858 15.5 11.5V12.5C15.5 13.9142 15.5 14.6213 15.0607 15.0607C14.6213 15.5 13.9142 15.5 12.5 15.5H11.5C10.0858 15.5 9.37868 15.5 8.93934 15.0607C8.5 14.6213 8.5 13.9142 8.5 12.5V11.5Z" stroke="currentColor" stroke-width="1.5"/><path d="M22 19H13C9.22876 19 7.34315 19 6.17157 17.8284C5.51839 17.1752 5.22937 16.3001 5.10149 15M5 11V2" stroke="currentColor" stroke-width="1.5" stroke-linecap="round"/><path d="M8 5H11C14.7712 5 16.6569 5 17.8284 6.17157C18.4816 6.82475 18.7706 7.69989 18.8985 9M2 5H5M19 19V22M19 13V16" stroke="currentColor" stroke-width="1.5" stroke-linecap="round"/></g></svg>

<svg fill="none" viewBox="0 0 24 24"><g stroke="currentColor" stroke-width="1.5"><path d="M8.5 11.5c0-1.414 0-2.121.44-2.56.439-.44 1.146-.44 2.56-.44h1c1.414 0 2.121 0 2.56.44.44.439.44 1.146.44 2.56v1c0 1.414 0 2.121-.44 2.56-.439.44-1.146.44-2.56.44h-1c-1.414 0-2.121 0-2.56-.44-.44-.439-.44-1.146-.44-2.56z"/><path stroke-linecap="round" d="M22 19h-9c-3.771 0-5.657 0-6.828-1.172-.654-.653-.943-1.528-1.07-2.828M5 11V2m3 3h3c3.771 0 5.657 0 6.828 1.172.654.653.943 1.528 1.07 2.828M2 5h3m14 14v3m0-9v3"/></g></svg>
